X:6
T:Bag of Spuds (reel), The  
B:CRE1.111 (Mala Fatai)
F:file ID: cre.1/006bag_s
S:Matthew Tiernan
M:C
L:1/8
Q:180
R:reel
K:Am
A2eA cAeA|ABcd (3e^fe dB|G2dG BGdB|GBB2 GBdB|
A2eA cAeA|ABcd (3e^fe dB|ABcd egg2|dBGA BAA2:|
a2ea a2ea|agbg age^f|(3g^fe dc BGBd|g^fga bgeg|
a2ea a2 (3e^fg|agbg age^f|gedc BGBd|1 gedB BAA2:|\
[2 g^fge dBGB||

